svgs/sharp-regular/podium.svg

<svg xmlns="http://www.w3.org/2000/svg" viewBox="0 0 448 512"><!--! Font Awesome Pro 6.6.0 by @fontawesome - https://fontawesome.com License - https://fontawesome.com/license (Commercial License) Copyright 2024 Fonticons, Inc. --><path d="M176 0L288 0c26.5 0 48 21.5 48 48s-21.5 48-48 48L176 96l0-24-8 0c-22.1 0-40 17.9-40 40l0 32 296 0 24 0 0 48-24 0L24 192 0 192l0-48 24 0 56 0 0-32c0-48.6 39.4-88 88-88l8 0 0-24zM80 512L47.3 224l48.3 0 27.3 240 202.3 0 27.3-240 48.3 0L368 512 80 512z"/></svg>

<svg xmlns="http://www.w3.org/2000/svg" viewBox="0 0 448 512"><!--! Font Awesome Pro 6.4.2 by @fontawesome - https://fontawesome.com License - https://fontawesome.com/license (Commercial License) Copyright 2023 Fonticons, Inc. --><path d="M176 0H288c26.5 0 48 21.5 48 48s-21.5 48-48 48H176V72h-8c-22.1 0-40 17.9-40 40v32H424h24v48H424 24 0V144H24 80V112c0-48.6 39.4-88 88-88h8V0zM80 512L47.3 224H95.6l27.3 240H325.1l27.3-240h48.3L368 512H80z"/></svg>
